img/svg/icon3.svg

<svg xmlns="http://www.w3.org/2000/svg" preserveAspectRatio="xMidYMid" width="52" height="54" viewBox="0 0 52 54"><defs><style>.cls-2 { fill: #000000; stroke: #ff4700; stroke-linejoin: round; stroke-width: 1px; fill-opacity: 0; }</style></defs><path d="M46.663 4.167c-.208-.463-.707-.729-1.217-.653-.51.076-.903.481-.959.983-.005.039-.457 3.838-2.858 4.083-.292.03-.569.044-.846.044-.693 0-1.233-.093-1.755-.182-.462-.079-.898-.154-1.375-.154-1.056 0-2.017.39-3.118 1.266-2.26 1.798-2.553 4.909-2.56 6.334l-11.754 9.68c-.244.201-.391.494-.405.807-.014.312.107.617.332.838l.338.33-.145.141c-3.977 3.899-8.491 8.857-11.779 12.938-1.746 2.167-3.063 3.975-3.913 5.371-.941 1.546-1.679 3.108-.708 4.06.208.204.581.447 1.173.447 3.385 0 15.768-10.762 21.646-16.524l.143-.141.337.33c.215.21.505.327.806.327l.05-.001c.319-.014.617-.158.823-.398l9.984-11.649c1.502-.005 4.373-.401 6.968-2.944 5.266-5.163.977-14.921.792-15.333zm-18.69 27.556l-5.334-5.229 10.35-8.523 3.679 3.607-8.695 10.145z" id="path-1" class="cls-2" fill-rule="evenodd"/></svg>

<svg xmlns="http://www.w3.org/2000/svg" xmlns:xlink="http://www.w3.org/1999/xlink" preserveAspectRatio="xMidYMid" width="52" height="54" viewBox="0 0 52 54">
  <defs>
    <style>

      .cls-2 {
        fill: #000000;
        stroke: #ff4700;
        stroke-linejoin: round;
        stroke-width: 1px;
        fill-opacity: 0;
      }
    </style>
  </defs>
  <path d="M46.663,4.167 C46.455,3.704 45.956,3.438 45.446,3.514 C44.936,3.590 44.543,3.995 44.487,4.497 C44.482,4.536 44.030,8.335 41.629,8.580 C41.337,8.610 41.060,8.624 40.783,8.624 C40.090,8.624 39.550,8.531 39.028,8.442 C38.566,8.363 38.130,8.288 37.653,8.288 C36.597,8.288 35.636,8.678 34.535,9.554 C32.275,11.352 31.982,14.463 31.975,15.888 C31.975,15.888 20.221,25.568 20.221,25.568 C19.977,25.769 19.830,26.062 19.816,26.375 C19.802,26.687 19.923,26.992 20.148,27.213 C20.148,27.213 20.486,27.543 20.486,27.543 C20.437,27.591 20.390,27.636 20.341,27.684 C16.364,31.583 11.850,36.541 8.562,40.622 C6.816,42.789 5.499,44.597 4.649,45.993 C3.708,47.539 2.970,49.101 3.941,50.053 C4.149,50.257 4.522,50.500 5.114,50.500 C8.499,50.500 20.882,39.738 26.760,33.976 C26.809,33.928 26.855,33.882 26.903,33.835 C26.903,33.835 27.240,34.165 27.240,34.165 C27.455,34.375 27.745,34.492 28.046,34.492 C28.063,34.492 28.079,34.492 28.096,34.491 C28.415,34.477 28.713,34.333 28.919,34.093 C28.919,34.093 38.903,22.444 38.903,22.444 C40.405,22.439 43.276,22.043 45.871,19.500 C51.137,14.337 46.848,4.579 46.663,4.167 ZM27.973,31.723 C27.973,31.723 22.639,26.494 22.639,26.494 C22.639,26.494 32.989,17.971 32.989,17.971 C32.989,17.971 36.668,21.578 36.668,21.578 C36.668,21.578 27.973,31.723 27.973,31.723 Z" id="path-1" class="cls-2" fill-rule="evenodd"/>
</svg>
